X:57
T:My Love Is But A Lassie Yet. FTB.057
M:4/4
Q:100
B:Fiddler's Tune Book 1, pub.EFDSS.1952
R:.Reel
O:England
Z:Chris Partington <www.cpartington.plus.com>
K:D
(d/c/)|dD FA|dD D(d/c/)|dD FA|eE E(d/c/)|
dD FA|Bg fe|d/c/B/A/ B/c/d/e/|fd d:|
|:(f/g/)|a>f g>e|fd d(f/g/)|a>f e/f/g/a/|be e(f/g/)|
aa/f/ gg/e/|ff/d/ ee/c/|d/c/B/A/ B/c/d/e/|fd d:|

